X: 1565
T: Jackarse Eat It On The Way
B: australian traditional tunes wiki
M:4/4
L:1/8
R: Set Tune
Q: 1/4=100
K:D
V:1 
|:"D"f2a4f2|e2d4de|f2a4f2|"A7"e2d2e4|
"D"f2a4f2|e2d4ef|"Em"g2e2"D"f2d2|1"G"B6de:|2"G"B6cB||
|:"D"A6F2|A6Bc|d2e2f2d2|f2d2"G"B2cB|
"D"A6F2|A6Bc|d2e2f2d2|1"A7"c2Bc"D"d2cB:|2"A7"c2Bc"D"d4||
NOTES 
This is a version of "Spanish Ladies", but with the parts reversed and a syncopation in the A part, 
probably due to an accordion taking the easy way out. The tune's phrases mostly end on a minor chord,
which is the result of only one note being changed, but radically alters the sound. This 
transforms a pleasant melody into a very strong fiddle tune. Greg O'Leary, 2007
% abcbook-tune_id 6342d53a95d39843b3fe072b


% abcbook-boost 0
% abcbook-tablature 
% abcbook-transpose 
% abcbook-lastupdated 1665324371317
% abcbook-soundfonts 
% abcbook-repeats 1
% NFF Book 2006
%%begintext align
%%endtext

